docs/src/assets/logo-full.svg

<svg width="2222" height="512" fill="none" xmlns="http://www.w3.org/2000/svg"><path fill-rule="evenodd" clip-rule="evenodd" d="m162.692 67-56.842 81.966h68.28v209.858h71.23c13.255 0 24 10.746 24 24 0 13.255-10.745 24-24 24h-85.23c-18.778 0-34-15.222-34-34V196.966H79.104c-27.438 0-43.575-30.828-27.939-53.375l76.26-109.966A34 34 0 0 1 155.364 19h137.568c64.177 0 123.421 67.39 123.421 153.966 0 47.926-17.445 80.247-36.146 100.618a126.164 126.164 0 0 1-16.61 15.149l73.394 155.776C447.617 467.06 431.164 493 406.234 493h-98.992c-13.255 0-24-10.745-24-24s10.745-24 24-24h76.92l-84.094-178.487 23.638-9.299.003-.001c.134-.059.458-.205.946-.445a53.615 53.615 0 0 0 4.641-2.614c4.11-2.57 9.806-6.772 15.551-13.03 11.126-12.12 23.506-33.05 23.506-68.158 0-68.66-45.599-105.966-75.421-105.966h-130.24Z" fill="#DB2777"/><path d="M602.4 410c-22.133 0-40.667-3.6-55.6-10.8-14.933-7.467-26.4-18-34.4-31.6-7.733-13.6-12-29.467-12.8-47.6-.267-5.333-.4-11.333-.4-18 0-6.933.133-12.933.4-18 .8-18.4 5.333-34.267 13.6-47.6 8.267-13.6 19.867-24 34.8-31.2 14.933-7.467 33.067-11.2 54.4-11.2 21.067 0 39.067 3.733 54 11.2 14.933 7.2 26.533 17.6 34.8 31.2 8.267 13.333 12.8 29.2 13.6 47.6.533 5.067.8 11.067.8 18 0 6.667-.267 12.667-.8 18-.8 18.133-5.2 34-13.2 47.6-7.733 13.6-19.067 24.133-34 31.6-14.933 7.2-33.333 10.8-55.2 10.8Zm0-44c13.067 0 22.933-4 29.6-12 6.667-8.267 10.267-20.267 10.8-36 .267-4 .4-9.333.4-16s-.133-12-.4-16c-.533-15.467-4.133-27.333-10.8-35.6-6.667-8.267-16.533-12.4-29.6-12.4s-23.067 4.133-30 12.4c-6.667 8.267-10.267 20.133-10.8 35.6-.267 4-.4 9.333-.4 16s.133 12 .4 16c.533 15.733 4.133 27.733 10.8 36 6.933 8 16.933 12 30 12Zm146.634 40c-2.666 0-4.933-.933-6.8-2.8-1.866-1.867-2.8-4.267-2.8-7.2V208c0-2.933.934-5.333 2.8-7.2 1.867-1.867 4.134-2.8 6.8-2.8h39.2c2.934 0 5.334.933 7.2 2.8 1.867 1.867 2.8 4.267 2.8 7.2v15.6c6.934-8.533 15.867-15.6 26.8-21.2 10.934-5.6 24.267-8.4 40-8.4 15.734 0 29.467 3.6 41.2 10.8 12 6.933 21.334 17.2 28 30.8 6.934 13.333 10.4 29.6 10.4 48.8V396c0 2.933-1.066 5.333-3.2 7.2-1.866 1.867-4.133 2.8-6.8 2.8h-42.4c-2.933 0-5.333-.933-7.2-2.8-1.866-1.867-2.8-4.267-2.8-7.2V286.8c0-14.133-3.466-25.067-10.4-32.8-6.666-8-16.533-12-29.6-12-12.533 0-22.533 4-30 12-7.466 7.733-11.2 18.667-11.2 32.8V396c0 2.933-.933 5.333-2.8 7.2-1.866 1.867-4.133 2.8-6.8 2.8h-42.4Zm328.326 4c-30.67 0-55.07-8.533-73.2-25.6-17.867-17.067-27.334-41.867-28.401-74.4V292.8c1.067-20.533 5.734-38.133 14-52.8 8.267-14.933 19.871-26.267 34.801-34 14.93-8 32.4-12 52.4-12 22.4 0 41.07 4.667 56 14 15.2 9.067 26.53 21.6 34 37.6 7.73 15.733 11.6 33.867 11.6 54.4v9.2c0 2.667-1.07 4.933-3.2 6.8-1.87 1.867-4.13 2.8-6.8 2.8h-130.8v3.2c.27 8.533 1.87 16.4 4.8 23.6 3.2 6.933 7.6 12.533 13.2 16.8 5.87 4.267 12.8 6.4 20.8 6.4 6.67 0 12.13-.933 16.4-2.8 4.27-1.867 7.73-4.133 10.4-6.8 2.93-2.667 5.07-4.933 6.4-6.8 2.4-2.667 4.27-4.267 5.6-4.8 1.6-.8 4-1.2 7.2-1.2h41.6c2.67 0 4.8.8 6.4 2.4 1.87 1.333 2.67 3.333 2.4 6-.27 4.267-2.53 9.6-6.8 16-4 6.133-10 12.267-18 18.4-8 5.867-18 10.8-30 14.8-11.73 4-25.33 6-40.8 6Zm-39.6-127.6h78.4v-.8c0-9.6-1.6-17.867-4.8-24.8-2.93-7.2-7.33-12.8-13.2-16.8-5.87-4-12.93-6-21.2-6s-15.33 2-21.2 6c-5.87 4-10.4 9.6-13.6 16.8-2.93 6.933-4.4 15.2-4.4 24.8v.8ZM1224.94 406c-2.93 0-5.33-.933-7.2-2.8-1.86-1.867-2.8-4.267-2.8-7.2V136c0-2.933.94-5.333 2.8-7.2 1.87-1.867 4.27-2.8 7.2-2.8h106c33.34 0 59.6 7.733 78.8 23.2 19.2 15.2 28.8 37.2 28.8 66 0 19.467-4.66 35.733-14 48.8-9.33 13.067-21.86 22.8-37.6 29.2l56.4 100c.8 1.6 1.2 3.067 1.2 4.4 0 2.133-.8 4.133-2.4 6-1.6 1.6-3.6 2.4-6 2.4h-44.4c-4.8 0-8.4-1.2-10.8-3.6-2.4-2.667-4.13-5.067-5.2-7.2l-48.8-91.6h-48.4V396c0 2.933-.93 5.333-2.8 7.2-1.86 1.867-4.26 2.8-7.2 2.8h-43.6Zm53.6-153.2h51.2c14.67 0 25.47-3.333 32.4-10 7.2-6.667 10.8-16 10.8-28s-3.46-21.467-10.4-28.4c-6.93-6.933-17.86-10.4-32.8-10.4h-51.2v76.8ZM1565.27 410c-30.67 0-55.07-8.533-73.2-25.6-17.87-17.067-27.34-41.867-28.4-74.4V292.8c1.06-20.533 5.73-38.133 14-52.8 8.26-14.933 19.86-26.267 34.8-34 14.93-8 32.4-12 52.4-12 22.4 0 41.06 4.667 56 14 15.2 9.067 26.53 21.6 34 37.6 7.73 15.733 11.6 33.867 11.6 54.4v9.2c0 2.667-1.07 4.933-3.2 6.8-1.87 1.867-4.14 2.8-6.8 2.8h-130.8v3.2c.26 8.533 1.86 16.4 4.8 23.6 3.2 6.933 7.6 12.533 13.2 16.8 5.86 4.267 12.8 6.4 20.8 6.4 6.66 0 12.13-.933 16.4-2.8 4.26-1.867 7.73-4.133 10.4-6.8 2.93-2.667 5.06-4.933 6.4-6.8 2.4-2.667 4.26-4.267 5.6-4.8 1.6-.8 4-1.2 7.2-1.2h41.6c2.66 0 4.8.8 6.4 2.4 1.86 1.333 2.66 3.333 2.4 6-.27 4.267-2.54 9.6-6.8 16-4 6.133-10 12.267-18 18.4-8 5.867-18 10.8-30 14.8-11.74 4-25.34 6-40.8 6Zm-39.6-127.6h78.4v-.8c0-9.6-1.6-17.867-4.8-24.8-2.94-7.2-7.34-12.8-13.2-16.8-5.87-4-12.94-6-21.2-6-8.27 0-15.34 2-21.2 6-5.87 4-10.4 9.6-13.6 16.8-2.94 6.933-4.4 15.2-4.4 24.8v.8ZM1708.45 482c-2.93 0-5.33-.933-7.2-2.8-1.87-1.867-2.8-4.267-2.8-7.2V208c0-2.933.93-5.333 2.8-7.2 1.87-1.867 4.27-2.8 7.2-2.8h38c2.93 0 5.33.933 7.2 2.8 1.87 1.867 2.8 4.267 2.8 7.2v15.2c6.4-8.533 14.67-15.467 24.8-20.8 10.13-5.6 22.8-8.4 38-8.4 13.87 0 25.87 2.267 36 6.8 10.4 4.267 19.07 10.533 26 18.8 7.2 8 12.67 17.733 16.4 29.2 4 11.467 6.27 24.4 6.8 38.8.27 5.067.4 9.867.4 14.4 0 4.533-.13 9.467-.4 14.8-.27 13.6-2.4 26.133-6.4 37.6-3.73 11.467-9.2 21.333-16.4 29.6-7.2 8.267-16 14.667-26.4 19.2-10.13 4.533-22.13 6.8-36 6.8-13.6 0-25.47-2.4-35.6-7.2-9.87-5.067-18-11.867-24.4-20.4V472c0 2.933-.93 5.333-2.8 7.2-1.87 1.867-4.13 2.8-6.8 2.8h-41.2Zm92.8-120c10.13 0 18.13-2.133 24-6.4 5.87-4.533 10-10.4 12.4-17.6 2.67-7.2 4.27-15.067 4.8-23.6.53-8.267.53-16.533 0-24.8-.53-8.533-2.13-16.4-4.8-23.6-2.4-7.2-6.53-12.933-12.4-17.2-5.87-4.533-13.87-6.8-24-6.8-9.87 0-17.87 2.267-24 6.8-6.13 4.533-10.53 10.267-13.2 17.2s-4.27 14.4-4.8 22.4c-.27 4.8-.4 9.733-.4 14.8s.13 10.133.4 15.2c.27 7.467 1.87 14.533 4.8 21.2 3.2 6.4 7.73 11.733 13.6 16 6.13 4.267 14 6.4 23.6 6.4Zm233.23 48c-22.14 0-40.67-3.6-55.6-10.8-14.94-7.467-26.4-18-34.4-31.6-7.74-13.6-12-29.467-12.8-47.6-.27-5.333-.4-11.333-.4-18 0-6.933.13-12.933.4-18 .8-18.4 5.33-34.267 13.6-47.6 8.26-13.6 19.86-24 34.8-31.2 14.93-7.467 33.06-11.2 54.4-11.2 21.06 0 39.06 3.733 54 11.2 14.93 7.2 26.53 17.6 34.8 31.2 8.26 13.333 12.8 29.2 13.6 47.6.53 5.067.8 11.067.8 18 0 6.667-.27 12.667-.8 18-.8 18.133-5.2 34-13.2 47.6-7.74 13.6-19.07 24.133-34 31.6-14.94 7.2-33.34 10.8-55.2 10.8Zm0-44c13.06 0 22.93-4 29.6-12 6.66-8.267 10.26-20.267 10.8-36 .26-4 .4-9.333.4-16s-.14-12-.4-16c-.54-15.467-4.14-27.333-10.8-35.6-6.67-8.267-16.54-12.4-29.6-12.4-13.07 0-23.07 4.133-30 12.4-6.67 8.267-10.27 20.133-10.8 35.6-.27 4-.4 9.333-.4 16s.13 12 .4 16c.53 15.733 4.13 27.733 10.8 36 6.93 8 16.93 12 30 12Z" fill="#DB2777"/></svg>

<svg width="2222" height="512" viewBox="0 0 2222 512" fill="none" xmlns="http://www.w3.org/2000/svg">
<path fill-rule="evenodd" clip-rule="evenodd" d="M162.692 67L105.85 148.966H174.13V358.824H245.36C258.615 358.824 269.36 369.57 269.36 382.824C269.36 396.079 258.615 406.824 245.36 406.824H160.13C141.352 406.824 126.13 391.602 126.13 372.824V196.966H79.1042C51.6655 196.966 35.5286 166.138 51.1651 143.591L127.425 33.6246C133.777 24.4644 144.217 19 155.364 19L292.932 19C357.109 19 416.353 86.3891 416.353 172.966C416.353 220.892 398.908 253.213 380.207 273.584C374.515 279.785 368.803 284.779 363.597 288.733L436.991 444.509C447.617 467.06 431.164 493 406.234 493H307.242C293.987 493 283.242 482.255 283.242 469C283.242 455.745 293.987 445 307.242 445H384.162L300.068 266.513L323.706 257.214C323.707 257.214 323.708 257.213 323.709 257.213C323.843 257.154 324.167 257.008 324.655 256.768C325.634 256.285 327.251 255.433 329.296 254.154C333.406 251.584 339.102 247.382 344.847 241.124C355.973 229.004 368.353 208.074 368.353 172.966C368.353 104.306 322.754 67 292.932 67H162.692Z" fill="#F31186"/>
<path d="M602.4 410C580.267 410 561.733 406.4 546.8 399.2C531.867 391.733 520.4 381.2 512.4 367.6C504.667 354 500.4 338.133 499.6 320C499.333 314.667 499.2 308.667 499.2 302C499.2 295.067 499.333 289.067 499.6 284C500.4 265.6 504.933 249.733 513.2 236.4C521.467 222.8 533.067 212.4 548 205.2C562.933 197.733 581.067 194 602.4 194C623.467 194 641.467 197.733 656.4 205.2C671.333 212.4 682.933 222.8 691.2 236.4C699.467 249.733 704 265.6 704.8 284C705.333 289.067 705.6 295.067 705.6 302C705.6 308.667 705.333 314.667 704.8 320C704 338.133 699.6 354 691.6 367.6C683.867 381.2 672.533 391.733 657.6 399.2C642.667 406.4 624.267 410 602.4 410ZM602.4 366C615.467 366 625.333 362 632 354C638.667 345.733 642.267 333.733 642.8 318C643.067 314 643.2 308.667 643.2 302C643.2 295.333 643.067 290 642.8 286C642.267 270.533 638.667 258.667 632 250.4C625.333 242.133 615.467 238 602.4 238C589.333 238 579.333 242.133 572.4 250.4C565.733 258.667 562.133 270.533 561.6 286C561.333 290 561.2 295.333 561.2 302C561.2 308.667 561.333 314 561.6 318C562.133 333.733 565.733 345.733 572.4 354C579.333 362 589.333 366 602.4 366ZM749.034 406C746.368 406 744.101 405.067 742.234 403.2C740.368 401.333 739.434 398.933 739.434 396V208C739.434 205.067 740.368 202.667 742.234 200.8C744.101 198.933 746.368 198 749.034 198H788.234C791.168 198 793.568 198.933 795.434 200.8C797.301 202.667 798.234 205.067 798.234 208V223.6C805.168 215.067 814.101 208 825.034 202.4C835.968 196.8 849.301 194 865.034 194C880.768 194 894.501 197.6 906.234 204.8C918.234 211.733 927.568 222 934.234 235.6C941.168 248.933 944.634 265.2 944.634 284.4V396C944.634 398.933 943.568 401.333 941.434 403.2C939.568 405.067 937.301 406 934.634 406H892.234C889.301 406 886.901 405.067 885.034 403.2C883.168 401.333 882.234 398.933 882.234 396V286.8C882.234 272.667 878.768 261.733 871.834 254C865.168 246 855.301 242 842.234 242C829.701 242 819.701 246 812.234 254C804.768 261.733 801.034 272.667 801.034 286.8V396C801.034 398.933 800.101 401.333 798.234 403.2C796.368 405.067 794.101 406 791.434 406H749.034ZM1077.36 410C1046.69 410 1022.29 401.467 1004.16 384.4C986.293 367.333 976.826 342.533 975.759 310C975.759 307.867 975.759 305.067 975.759 301.6C975.759 297.867 975.759 294.933 975.759 292.8C976.826 272.267 981.493 254.667 989.759 240C998.026 225.067 1009.63 213.733 1024.56 206C1039.49 198 1056.96 194 1076.96 194C1099.36 194 1118.03 198.667 1132.96 208C1148.16 217.067 1159.49 229.6 1166.96 245.6C1174.69 261.333 1178.56 279.467 1178.56 300V309.2C1178.56 311.867 1177.49 314.133 1175.36 316C1173.49 317.867 1171.23 318.8 1168.56 318.8H1037.76C1037.76 319.067 1037.76 319.6 1037.76 320.4C1037.76 320.933 1037.76 321.467 1037.76 322C1038.03 330.533 1039.63 338.4 1042.56 345.6C1045.76 352.533 1050.16 358.133 1055.76 362.4C1061.63 366.667 1068.56 368.8 1076.56 368.8C1083.23 368.8 1088.69 367.867 1092.96 366C1097.23 364.133 1100.69 361.867 1103.36 359.2C1106.29 356.533 1108.43 354.267 1109.76 352.4C1112.16 349.733 1114.03 348.133 1115.36 347.6C1116.96 346.8 1119.36 346.4 1122.56 346.4H1164.16C1166.83 346.4 1168.96 347.2 1170.56 348.8C1172.43 350.133 1173.23 352.133 1172.96 354.8C1172.69 359.067 1170.43 364.4 1166.16 370.8C1162.16 376.933 1156.16 383.067 1148.16 389.2C1140.16 395.067 1130.16 400 1118.16 404C1106.43 408 1092.83 410 1077.36 410ZM1037.76 282.4H1116.16V281.6C1116.16 272 1114.56 263.733 1111.36 256.8C1108.43 249.6 1104.03 244 1098.16 240C1092.29 236 1085.23 234 1076.96 234C1068.69 234 1061.63 236 1055.76 240C1049.89 244 1045.36 249.6 1042.16 256.8C1039.23 263.733 1037.76 272 1037.76 281.6V282.4ZM1224.94 406C1222.01 406 1219.61 405.067 1217.74 403.2C1215.88 401.333 1214.94 398.933 1214.94 396V136C1214.94 133.067 1215.88 130.667 1217.74 128.8C1219.61 126.933 1222.01 126 1224.94 126H1330.94C1364.28 126 1390.54 133.733 1409.74 149.2C1428.94 164.4 1438.54 186.4 1438.54 215.2C1438.54 234.667 1433.88 250.933 1424.54 264C1415.21 277.067 1402.68 286.8 1386.94 293.2L1443.34 393.2C1444.14 394.8 1444.54 396.267 1444.54 397.6C1444.54 399.733 1443.74 401.733 1442.14 403.6C1440.54 405.2 1438.54 406 1436.14 406H1391.74C1386.94 406 1383.34 404.8 1380.94 402.4C1378.54 399.733 1376.81 397.333 1375.74 395.2L1326.94 303.6H1278.54V396C1278.54 398.933 1277.61 401.333 1275.74 403.2C1273.88 405.067 1271.48 406 1268.54 406H1224.94ZM1278.54 252.8H1329.74C1344.41 252.8 1355.21 249.467 1362.14 242.8C1369.34 236.133 1372.94 226.8 1372.94 214.8C1372.94 202.8 1369.48 193.333 1362.54 186.4C1355.61 179.467 1344.68 176 1329.74 176H1278.54V252.8ZM1565.27 410C1534.6 410 1510.2 401.467 1492.07 384.4C1474.2 367.333 1464.73 342.533 1463.67 310C1463.67 307.867 1463.67 305.067 1463.67 301.6C1463.67 297.867 1463.67 294.933 1463.67 292.8C1464.73 272.267 1469.4 254.667 1477.67 240C1485.93 225.067 1497.53 213.733 1512.47 206C1527.4 198 1544.87 194 1564.87 194C1587.27 194 1605.93 198.667 1620.87 208C1636.07 217.067 1647.4 229.6 1654.87 245.6C1662.6 261.333 1666.47 279.467 1666.47 300V309.2C1666.47 311.867 1665.4 314.133 1663.27 316C1661.4 317.867 1659.13 318.8 1656.47 318.8H1525.67C1525.67 319.067 1525.67 319.6 1525.67 320.4C1525.67 320.933 1525.67 321.467 1525.67 322C1525.93 330.533 1527.53 338.4 1530.47 345.6C1533.67 352.533 1538.07 358.133 1543.67 362.4C1549.53 366.667 1556.47 368.8 1564.47 368.8C1571.13 368.8 1576.6 367.867 1580.87 366C1585.13 364.133 1588.6 361.867 1591.27 359.2C1594.2 356.533 1596.33 354.267 1597.67 352.4C1600.07 349.733 1601.93 348.133 1603.27 347.6C1604.87 346.8 1607.27 346.4 1610.47 346.4H1652.07C1654.73 346.4 1656.87 347.2 1658.47 348.8C1660.33 350.133 1661.13 352.133 1660.87 354.8C1660.6 359.067 1658.33 364.4 1654.07 370.8C1650.07 376.933 1644.07 383.067 1636.07 389.2C1628.07 395.067 1618.07 400 1606.07 404C1594.33 408 1580.73 410 1565.27 410ZM1525.67 282.4H1604.07V281.6C1604.07 272 1602.47 263.733 1599.27 256.8C1596.33 249.6 1591.93 244 1586.07 240C1580.2 236 1573.13 234 1564.87 234C1556.6 234 1549.53 236 1543.67 240C1537.8 244 1533.27 249.6 1530.07 256.8C1527.13 263.733 1525.67 272 1525.67 281.6V282.4ZM1708.45 482C1705.52 482 1703.12 481.067 1701.25 479.2C1699.38 477.333 1698.45 474.933 1698.45 472V208C1698.45 205.067 1699.38 202.667 1701.25 200.8C1703.12 198.933 1705.52 198 1708.45 198H1746.45C1749.38 198 1751.78 198.933 1753.65 200.8C1755.52 202.667 1756.45 205.067 1756.45 208V223.2C1762.85 214.667 1771.12 207.733 1781.25 202.4C1791.38 196.8 1804.05 194 1819.25 194C1833.12 194 1845.12 196.267 1855.25 200.8C1865.65 205.067 1874.32 211.333 1881.25 219.6C1888.45 227.6 1893.92 237.333 1897.65 248.8C1901.65 260.267 1903.92 273.2 1904.45 287.6C1904.72 292.667 1904.85 297.467 1904.85 302C1904.85 306.533 1904.72 311.467 1904.45 316.8C1904.18 330.4 1902.05 342.933 1898.05 354.4C1894.32 365.867 1888.85 375.733 1881.65 384C1874.45 392.267 1865.65 398.667 1855.25 403.2C1845.12 407.733 1833.12 410 1819.25 410C1805.65 410 1793.78 407.6 1783.65 402.8C1773.78 397.733 1765.65 390.933 1759.25 382.4V472C1759.25 474.933 1758.32 477.333 1756.45 479.2C1754.58 481.067 1752.32 482 1749.65 482H1708.45ZM1801.25 362C1811.38 362 1819.38 359.867 1825.25 355.6C1831.12 351.067 1835.25 345.2 1837.65 338C1840.32 330.8 1841.92 322.933 1842.45 314.4C1842.98 306.133 1842.98 297.867 1842.45 289.6C1841.92 281.067 1840.32 273.2 1837.65 266C1835.25 258.8 1831.12 253.067 1825.25 248.8C1819.38 244.267 1811.38 242 1801.25 242C1791.38 242 1783.38 244.267 1777.25 248.8C1771.12 253.333 1766.72 259.067 1764.05 266C1761.38 272.933 1759.78 280.4 1759.25 288.4C1758.98 293.2 1758.85 298.133 1758.85 303.2C1758.85 308.267 1758.98 313.333 1759.25 318.4C1759.52 325.867 1761.12 332.933 1764.05 339.6C1767.25 346 1771.78 351.333 1777.65 355.6C1783.78 359.867 1791.65 362 1801.25 362ZM2034.48 410C2012.34 410 1993.81 406.4 1978.88 399.2C1963.94 391.733 1952.48 381.2 1944.48 367.6C1936.74 354 1932.48 338.133 1931.68 320C1931.41 314.667 1931.28 308.667 1931.28 302C1931.28 295.067 1931.41 289.067 1931.68 284C1932.48 265.6 1937.01 249.733 1945.28 236.4C1953.54 222.8 1965.14 212.4 1980.08 205.2C1995.01 197.733 2013.14 194 2034.48 194C2055.54 194 2073.54 197.733 2088.48 205.2C2103.41 212.4 2115.01 222.8 2123.28 236.4C2131.54 249.733 2136.08 265.6 2136.88 284C2137.41 289.067 2137.68 295.067 2137.68 302C2137.68 308.667 2137.41 314.667 2136.88 320C2136.08 338.133 2131.68 354 2123.68 367.6C2115.94 381.2 2104.61 391.733 2089.68 399.2C2074.74 406.4 2056.34 410 2034.48 410ZM2034.48 366C2047.54 366 2057.41 362 2064.08 354C2070.74 345.733 2074.34 333.733 2074.88 318C2075.14 314 2075.28 308.667 2075.28 302C2075.28 295.333 2075.14 290 2074.88 286C2074.34 270.533 2070.74 258.667 2064.08 250.4C2057.41 242.133 2047.54 238 2034.48 238C2021.41 238 2011.41 242.133 2004.48 250.4C1997.81 258.667 1994.21 270.533 1993.68 286C1993.41 290 1993.28 295.333 1993.28 302C1993.28 308.667 1993.41 314 1993.68 318C1994.21 333.733 1997.81 345.733 2004.48 354C2011.41 362 2021.41 366 2034.48 366Z" fill="#F31186"/>
</svg>
